X:1
T: Old Rosin the Beau
C:
R:Jig
Q:180
K:A
M:6/8
L:1/16
E2|A3GA2 c3BA2|e6f6|e3cA2 A3Bc2|F6-F4E2|A3GA2 c3BA2|e6f6|e3cA2 B2A2G2|A6-A4E2|
A3GA2 c3BA2|e6f6|e3cA2 A3Bc2|F6-F4E2|A3GA2 c3BA2|e6f6|e3cA2 B2A2G2|A6-A4cd|
e4e2 e2f2g2|a4f2 a4f2|e3cA2 A3Bc2|F6-F4E2|A3GA2 c3BA2|e6f6|e3cA2 B2A2G2|A6-A4cd|
e4e2 e2f2g2|a4f2 a4f2|e3cA2 A3Bc2|F6-F4E2|A3GA2 c3BA2|e6f6|e3cA2 B2A2G2|A6-A4||
